!!!COM: Robert Schumann
!!!CNT: Deutsch
!!!TXO: Deutsch
!!!OTL: Die Soldatenbraut
!!!LYR: Mo2rike
!!!OPR: Ausgewa2hlte Lieder
!!!OPS: Op. 64
!!!ONM: No. 1
!!!ENC: Ben Fuhrman
!!!YOR: Schumann Lieder - Max Friedlaender, ed.,
!!!YOR: New York: C. F. Peters, Vol. 1
!!!ODT: 1847/
!!NB: Vocal melody and text only encoded.
!!NB: First instance of melodic material only encoded.
**kern	**silbe
*clefG2	*
*k[b-e-]	*
*M4/4	*
!!created: 5/30/06 9:55
!!proofed and posted: 5/30/06 9:55
!!edit time: 40 minutes
=2	=2
2r	.
4r	.
{4f	{Ach,
=3	=3
4b-	wenn's
8.a	nur
16g	der
4cc	Ko2-
8.g	-nig
16a	wuch
=4	=4
4f}	wu2sst',}
4r	.
4r	.
{4f	{wie
=5	=5
4a-	wak-
8.g	-ker
16f	mein
4b-	Scha2t-
8f	-ze-
8g	-lein
=6	=6
4e-}	ist!}
4r	.
4r	.
{8.e-	{Fu2r
16f	den
=7	=7
(8g	Ko2-
8e-)	|
8c	-nig
8e-	da
(8g	liess'
8cc)	|
8dd	er
8ee-	sein
=8	=8
(4ee-	Blut,
2a)	|
4b-	fu2r
=9	=9
4dd	mich
8.b-	a-
16g	-ber
4f	e-
8.e-	-ben-
16e-	-so
=10	=10
4d}	gut,}
4r	.
4r	.
{4b-	{fu2r
=11	=11
4dd	mich
8.b-	a-
16g	-ber
4f	e-
8.c	-ben-
16d	-so
=12	=12
4B-}	gut.}
4r	.
2r	.
=13	=13
2r	.
4r	.
{4f	{Mein
=14	=14
4b-	Schatz
8.a	hat
16g	kein
4cc	Band
8.g	und
16a	kein'
=15	=15
4f}	Stern,}
4r	.
4r	.
{4f	{kein
=16	=16
4a-	Kreuz,
8.g	wie
16f	die
4b-	vor-
8f	-neh-
8g	-men
=17	=17
4e-}	Herrn,}
4r	.
4r	.
{4e-	{mein
=18	=18
(8g	Schatz
8e-)	|
8c	wird
8e-	auch
(8g	kein
8cc)	|
8dd	Ge-
8aa-	-ne-
=19	=19
(4ee-	-ral:
2a)	|
8b-	ha2tt'
8b-	er
=20	=20
4dd	nur
8b-	sei-
8g	-nen
4f	Ab-
8e-	-schied
8e-	ein-
=21	=21
4d}	-mal,}
4r	.
4r	.
{8b-	{ha2tt'
8b-	er
=22	=22
4dd	nur
8.b-	sei-
16g	-nen
4f	Ab-
8.c	-schied
16d	ein-
=23	=23
4B-}	-mal!}
4r	.
2r	.
=24	=24
2r	.
4r	.
{4f	{Es
=25	=25
4dd	schein-
8dd	-en
8dd	drei
4ff	Ster-
8dd	-ne
8b-	so
=26	=26
(4.cc	hell
8dd	|
4b-)	|
4f	dort
=27	=27
(8g	u2-
8f)	|
8g	-ber
8a	Ma-
(8b-	-ri-
8a)	|
8b-	-en
8dd	ka-
=28	=28
2.cc}	-pell';}
{4f	{da
=29	=29
4dd	knu2pft
8dd	uns
8dd	ein
4ff	ro-
8dd	-sen-
8b-	-rot
=30	=30
(4.cc	Band,
8dd	|
4b-)	|
8f	und
8f	ein
=31	=31
(8g	Haus
8f)	|
8g	-kreuz
8a	ist
(8b-	auch
8a)	|
8b-	bei
8dd	der
=32	=32
(4.cc	Hand.
8dd	|
4b-)}	|}
4r	.
!! rest to measure 36
=36	=36
2r	.
4r	.
{4f	{Ach,
=37	=37
4b-	wenn's
8.a	nur
16g	der
4cc	Ko2-
8.g	-nig
16a	auch
=38	=38
4f}	wu2sst;}
4r	.
4r	.
{4f	{wie
=39	=39
4a-	wak-
8.g	-ker
16f	mein
4b-	Scha2t-
8f	-ze-
8g	-lein
=40	=40
4e-}	ist!}
4r	.
4r	.
{8.e-	{Fu2r
16f	den
=41	=41
(8g	Ko2-
8e-)	|
8c	-nig
8e-	da
(8g	liess'
8cc)	|
8dd	er
8ee-	sein
=42	=42
(4ee-	Blut,
2a)	|
4b-	fu2r
=43	=43
4dd	mich
8.b-	a-
16g	-ber
4f	e-
8.e-	-ben-
16e-	-so
=44	=44
4d}	gut,}
4r	.
4r	.
{4b-	{fu2r
=45	=45
4dd	mich
8b-	a-
8g	-ber
4f	e-
8.c	-ben-
16d	-so
=46	=46
4B-}	gut,}
4r	.
2r	.
!! rest to measure 50
=50	=50
2r	.
4r	.
{4f	{fu2r
=51	=51
4f	mich
4r	.
4r	.
8.f	a-
16f	-ber
=52	=52
4g	e-
8.a	-ben-
16a	-so
[2b-	gut!
=53	=53
4b-]}	|}
4r	.
2r	.
==	==
*-	*-
